X:1
T:Vray dieu d'amours
T:Jacotin
T:Source : Premier livre contenant 31 chansons eslevées---Paris---P.Attaignant---1535. Editor : André Vierendeels (20/12/17). Notes : Original clefs : C1, C3, C4, F3 Original note values have been halved Editorial accidentals above the staff Dotted brackets indicate black notes
T:Vray dieu d'amours
T:©
T:©
T:©
T:©
T:©
C:Jacotin
Z:©
%%score [ 1 [ 2 3 4 ] ]
L:1/8
Q:1/4=123
M:2/2
K:F
V:1 treble nm="Soprano" snm="S"
V:2 treble-8 nm="Tenor 1" snm="T 1"
V:3 treble-8 nm="Tenor 2" snm="T 2"
V:4 treble-8 nm="Tenor 3" snm="T 3"
V:1
 G4 G2 G2 | d3 c BA B2- | B2 AG FEFG | A2 A2 A2 G2 | E2 F2 G4 | G4 z2 G2 | F2 F2 G2 G2 | %7
w: Vray dieu d'a-|mours _ _ _ _|_ _ _ _ _ _ _|* maul- dict soit|la iour- né-|e, que|mon las cueur vous|
 AGFE DCDE | F2 G2 F2 A2- |"^#" AG G4 F2 | G8- | G4 z2 G2 | G2 G2 d3 c | BA B4 AG | FEFG A2 A2 | %15
w: a _ _ _ _ _ _ _|_ vou- lu choi-||sir,|_ car|main- te- nant _|_ _ _ _ _|* * * * * ma|
 A2 G2 E2 F2 | G4 G4 | z2 G2 F2 F2 | G2 G2 AGFE | DCDE F2 G2 | F2 A4 G2- |"^#" G2 F2 G4 | %22
w: vie est es- ga-|ré- e,|puis- que m'a-|vez du tout _ _ _|_ _ _ _ _ _|mis en ou-|* * bly,|
 z2 A2 A2 A2 | c2 c2 B2 c2 | d2 f2 e2 d2- | d2 c2 d2 A2 | B2 A4 G2- | G2 F2 G2 D2 | E2 F2 G2 A2- | %29
w: ma- mours, mon|cueur a- vez vous|a- vez de- lais-|* * sé, d'en-|nuy ie meurs|_ et de me-|len- co- li- *|
 A2 G4 F2 | G4 z2 A2 | A2 A2 c2 c2 | B2 c2 d2 f2 | e2 d4 c2 | d4 z4 | D3 E FG A2- | A2 G4 F2 | %37
w: |e, le|lict de pleurs m'y|con- vient _ pour|_ _ chas-|ser|et- * * * fault|_ fi- *|
 G4 z2 D2 | E2 F2 G2 A2- | A2 G4 F2 | G4 D3 E | FG A4 G2- | G2 F2 G4 | z2 D2 E2 F2 | G2 A4 G2- | %45
w: ner de|du- re mort ma|_ vi- *|e, et- *|* * fault fi-||de du- re|mort ma vi-|
 G2 F2 G4- | G8 |] %47
w: * * e.|_|
V:2
 z4 G4 | G2 G2 d4 | z4 z2 d2 | f6 d2 | e2 d2 B2 c2 | d4 e4 |"^b" d2 d2 d2 e2 | f4 g2 d2 | %8
w: Vray|dieu d'a- mours|maul-|dict soit|la iour- né- *|e, _|que mon las cueur|vous a vou-|
 d2 c2 d2 e2 | d2 c2 d4 | z2 d4 B2 | e4 d2 d2 | d2 c2 B3 A | Bc d2 de f2- | f2 ed e2 f2 | %15
w: lu choi- * *|* * sir,|car main-|te- nant ma|vie est es- *||* * * * ga-|
 f2 d2 e2 d2 | B2 c2 d4 | e4 d2 d2 |"^b" d2 e2 f4 | g2 d2 d2 c2 | d2 e2 d2 c2 | d8 | z2 f2 f2 f2 | %23
w: ré- e, est es-|ga- ré- *|* e, puis-|que m'a- vez|du tout mis en|_ _ _ ou-|bly,|ma- mours, mon|
 e2 f2 g2 G2 | A2 F2 G2 A2 | B2 c2 A2 A2 | G2 A2 B2 c2 | d2 d2 c2 A2 | Bc d3 e f2 | e2 c2 d4- | %30
w: cueur a- vez de-|lais- * * *|* * sé, d'en-|nuy ie meurs et|de me- len- co-|li- * * * *|* * e,|
 d4 z2 f2 | f2 f2 e2 f2 | g2 G2 A2 F2 | G2 A2 B2 c2 | A2 d4 c2 | B4 A4 | z2 d4 d2 | B2 c2 d3 c/B/ | %38
w: _ le|lict de pleurs m'y|con- vient pour chas-|||* ser,|et fault|fi- ner de _ _|
 A2 A2 G2 c2 |"^b" B2 e2 d3 c | BA B4 AG | A2 A2 B2 G2 | d2 d2 B2 c2 | d3 c/B/ A2 A2 | %44
w: du- re mort ma|vi _ _ _|_ _ _ _ _|e, et fault fi-|ner, et fault fi-|ner _ _ _ de|
 G2 c2 B2 e2 | d3 c B4- | B8 |] %47
w: du- re mort ma|vi- * e|_|
V:3
 z8 | G4 G2 G2 | d2 G2 B2 B2 | A2 d2 c2 B2 | c2 A2 G2 c2- |"^-natural" c2 B2 c2 G2 | B2 A2 G2 B2 | %7
w: |Vray dieu d'a-|mours, maul- dict soit|la iou- * *|né- * * *|* * e, que|mon las cueur vous|
 c2 d2 B4 | A2 G2 B2 c2- | c BAG A4 | G8 | z2 c4 B2 |"^b" e4 d2 G2 | G2 G2 B2 c2 | d4 c2 d2 | %15
w: a vou- lu|choi- * * *||sir,|car main-|te- nant, car|main- te- nant ma|vi- e est|
 c2 B2 c2 A2 |"^-natural" G2 c4 B2 | c2 G2 B2 A2 | G2 B2 c2 d2 | B4 A2 G2 | B2 c3 B G2 | A4 G4 | %22
w: es- ga- ré- *||e, puis- que m'a-|vez du tout mis|en _ _|_ _ _ _|ou- bly,|
 z2 c2 c2 c2 | c2 c2 d2 e2 | f3 e/d/ c2 d2 |"^b" e4 d2 d2 | B2 c3 B BA/G/ | A2 D2 E2 F2 | %28
w: ma- mours, mon|cueur a- vez de-|lais- * * * *|* sé, d'en-|nuy ie meurs, _ _ _|et de me- len-|
 G2 A2 B2 c2- | cBAG A4 | G4 z2 c2 | c2 c2 c2 c2 | d2 e2 f3 e/d/ | c2 d2 e4 | d4 z4 | z8 | %36
w: co- li- * *||e, le|lict de pleurs m'y|con- vient pour _ _|_ _ chas-|ser,||
 G3 A Bc d2- | d2 c4 B2 | c2 d2 c2 A2 | B2 c2 A4 | G8 | z4 G3 A | Bc d4 c2- | c2 B2 c2 d2 | %44
w: et _ _ _ fault|_ fi- *|ner de du- re|mort ma vi-|e,|et _|_ _ fault _|_ _ _ _|
 c2 A2 B2 c2 | A4 G4- | G8 |] %47
w: mort ma vi- *|* e.|_|
V:4
 z8 | z4 G4 | G2 G2 d4 | z2 D2 F2 G2 |"^b" C2 D2 E2 C2 | G4 C4 | z2 D2 G2 G2 | F2 D2 G2 G2 | %8
w: |Vray|dieu d'a- mours|maul- dict soit|la iour- né- *|* e,|que mon las|cueur vous a vou-|
 F2 E2 D2 C2 | D2 E2 D4 | G3 A B2 G2 | c4 G4 | z8 | z2 G4 F2 | B4 A2 D2 | F2 G2 C2 D2 | %16
w: lu choi- * *|* * sir,|car _ _ main-|te- nant,||car main-|te- nant ma|vi- e est es-|
"^b" E2 C2 G4 | C4 z2 D2 | G2 G2 F2 D2 | G2 G2 F2 E2 | D2 C2 D2 E2 | D4 G4 | z2 F2 F2 F2 | %23
w: ga- ré- *|e, puis-|que m'a- vez du|tout mis en _|_ _ _ _|ou- bly,|ma- mours, mon|
 A2 A2 G2 E2 | D4 E2 F2 | G2 A2 D2 D2 |"^b" G2 F2 E4 | D4 z4 | z2 D2 G2 F2 | G2 E2 D4 | G4 z2 F2 | %31
w: cueur a- vez de-|lais- * *|* * sé, d'en-|* nuy ie|meurs,|et de me-|len- co- li-|e, le|
 F2 F2 A2 A2 | G2 E2 D4 | E2 F2 G2 A2 | D2 DE FG A2 | AG G4 F2 | G4 z2 D2 |"^b" E2 C2 G4 | %38
w: lict de pleurs m'y|con- vient pour|chas- * * *|ser, et _ _ _ fault|_ _ fi- *|ner, et|fault fi- ner|
 z2 D2 E2 F2 | G2 C2 D4 | G2 GA Bc d2 | d2 c2 d4 | z2 D2 E2 C2 | G4 z2 D2 | E2 F2 G2 C2 | D4 G4- | %46
w: de du- re|mort ma vi-|e et _ _ _ fault|fi- * ner||e. *|mort ma vi- *|* e.|
 G8 |] %47
w: _|

